X: 6274
T: Carolan's Receipt
R: reel
M: 4/4
K: Gmajor
|g>f|edcB cBAG|E2 G>A G2 g>f|edcB cBcd|e2 AB A2 Bc|
dBde d2 ef|g2 fe d2 BA|BAGE AGED|E2 GA G2||
Bc|dBde dBAG|EFGA G2 Bc|dBde d2 Bd|e4 e3 g|
G2 G/A/B A2 AB/c/|B2 c/d/e d3 d|efgf edBd|e4 e2 ga|
babg agae|gfgd edcB|cBcd efgf|edeB A4|
BcBA G2 eg|dgBA G3 A|BAGE AGED|E2 GA G2||

